X:471
T:Jane's Heart Inclines to Me
N:"Cheerful" "collected by J.O'Neill"
N:Irish title: claoneann .croi.de mo .sineid liom
B:O'Neill's 471
Z:Transcribed by henrik.norbeck@mailbox.swipnet.se
M:6/8
L:1/8
K:Em
G/F/|.EEF AGFE|.eef agfe|dg.d ~dB.G|FDF BAGF|
.EEF AGFE|.eef Hg2 g/a/|.b.g.e ~dB.A|~GE.E E2 :|
e/f/|.g2 f/4g/4a/4b/4 afd|agfe dBd|e/f/g/f/g/a/ g.d.B|
.D.A.G .F.E.D|E2 e g2 f|.b.a.g .f.g.a|ga/g/f/e/ ~dB.A|~GE.E E2 :|
